img/badge.svg

<svg xmlns="http://www.w3.org/2000/svg" width="42" height="40"><path d="M38.552 25.795c-.645 1.985.235 4.766-.97 6.418-1.219 1.669-4.15 1.687-5.823 2.902-1.657 1.202-2.574 3.985-4.564 4.63-1.92.622-4.292-1.072-6.421-1.072-2.129 0-4.5 1.694-6.421 1.072-1.991-.645-2.907-3.428-4.564-4.631-1.674-1.215-4.604-1.232-5.822-2.901-1.207-1.653-.327-4.434-.972-6.419-.624-1.917-2.996-3.64-2.996-5.763 0-2.124 2.371-3.848 2.995-5.763.646-1.986-.234-4.766.972-6.418 1.218-1.67 4.148-1.687 5.821-2.903C11.445 3.744 12.361.962 14.352.318c1.92-.622 4.293 1.071 6.421 1.071 2.129 0 4.501-1.693 6.421-1.071 1.991.644 2.907 3.426 4.564 4.629 1.673 1.216 4.605 1.233 5.823 2.903 1.206 1.652.326 4.432.971 6.418.624 1.916 2.995 3.639 2.997 5.763 0 2.123-2.372 3.848-2.997 5.764zM20.773 5.49c-8.038 0-14.577 6.523-14.577 14.541 0 8.019 6.539 14.541 14.577 14.541S35.35 28.05 35.35 20.031c0-8.018-6.539-14.541-14.577-14.541zm0 26.708c-6.726 0-12.197-5.458-12.197-12.167S14.047 7.865 20.773 7.865c6.726 0 12.197 5.457 12.197 12.166 0 6.709-5.471 12.167-12.197 12.167zm8.353-14.388a.737.737 0 00-.652-.506l-5.119-.33-1.898-4.754a.735.735 0 00-1.367 0l-1.897 4.754-5.119.33a.736.736 0 00-.652.506.73.73 0 00.229.791l3.947 3.27-1.267 4.958a.733.733 0 00.28.775.742.742 0 00.826.027l4.336-2.734 4.337 2.734a.736.736 0 001.106-.802l-1.267-4.958 3.947-3.27a.735.735 0 00.23-.791z"/></svg>

<svg
		xmlns="http://www.w3.org/2000/svg"
		xmlns:xlink="http://www.w3.org/1999/xlink"
		width="42px" height="40px">
	<g>
		<path d="M38.552,25.795 C37.907,27.780 38.787,30.561 37.582,32.213 C36.363,33.882 33.432,33.900 31.759,35.115 C30.102,36.317 29.185,39.100 27.195,39.745 C25.275,40.367 22.903,38.673 20.774,38.673 C18.645,38.673 16.274,40.367 14.353,39.745 C12.362,39.100 11.446,36.317 9.789,35.114 C8.115,33.899 5.185,33.882 3.967,32.213 C2.760,30.560 3.640,27.779 2.995,25.794 C2.371,23.877 -0.001,22.154 -0.001,20.031 C-0.001,17.907 2.370,16.183 2.994,14.268 C3.640,12.282 2.760,9.502 3.966,7.850 C5.184,6.180 8.114,6.163 9.787,4.947 C11.445,3.744 12.361,0.962 14.352,0.318 C16.272,-0.304 18.645,1.389 20.773,1.389 C22.902,1.389 25.274,-0.304 27.194,0.318 C29.185,0.962 30.101,3.744 31.758,4.947 C33.431,6.163 36.363,6.180 37.581,7.850 C38.787,9.502 37.907,12.282 38.552,14.268 C39.176,16.184 41.547,17.907 41.549,20.031 C41.549,22.154 39.177,23.879 38.552,25.795 ZM20.773,5.490 C12.735,5.490 6.196,12.013 6.196,20.031 C6.196,28.050 12.735,34.572 20.773,34.572 C28.811,34.572 35.350,28.050 35.350,20.031 C35.350,12.013 28.811,5.490 20.773,5.490 ZM20.773,32.198 C14.047,32.198 8.576,26.740 8.576,20.031 C8.576,13.322 14.047,7.865 20.773,7.865 C27.499,7.865 32.970,13.322 32.970,20.031 C32.970,26.740 27.499,32.198 20.773,32.198 ZM29.126,17.810 C29.033,17.525 28.775,17.324 28.474,17.304 L23.355,16.974 L21.457,12.220 C21.346,11.941 21.075,11.758 20.774,11.758 C20.473,11.758 20.202,11.941 20.090,12.220 L18.193,16.974 L13.074,17.304 C12.773,17.324 12.514,17.525 12.422,17.810 C12.328,18.096 12.419,18.410 12.651,18.601 L16.598,21.871 L15.331,26.829 C15.256,27.121 15.368,27.427 15.611,27.604 C15.855,27.780 16.182,27.790 16.437,27.631 L20.773,24.897 L25.110,27.631 C25.365,27.790 25.692,27.780 25.936,27.604 C26.178,27.427 26.290,27.121 26.216,26.829 L24.949,21.871 L28.896,18.601 C29.127,18.410 29.218,18.096 29.126,17.810 Z"/>
	</g>
</svg>
